usr/share/icons/biglinux-icons-material/scalable/apps/utilities-log-viewer.svg

<?xml version="1.0" encoding="UTF-8" standalone="no"?>
<svg
   width="24"
   height="24"
   viewBox="0 0 6.349875 6.349875"
   version="1.1"
   id="svg8260"
   sodipodi:docname="utilities-log-viewer.svg"
   inkscape:version="1.2.2 (b0a8486541, 2022-12-01)"
   xmlns:inkscape="http://www.inkscape.org/namespaces/inkscape"
   xmlns:sodipodi="http://sodipodi.sourceforge.net/DTD/sodipodi-0.dtd"
   xmlns="http://www.w3.org/2000/svg"
   xmlns:svg="http://www.w3.org/2000/svg">
  <defs
     id="defs8264">
    <radialGradient
       fx="0"
       fy="0"
       cx="0"
       cy="0"
       r="1"
       gradientUnits="userSpaceOnUse"
       gradientTransform="matrix(0,5.8207185,-5.8207185,0,3.1748164,0.26457315)"
       spreadMethod="pad"
       id="radialGradient3666-6">
      <stop
         style="stop-color:#f9f9f9;stop-opacity:1;"
         offset="0"
         id="stop3662-7" />
      <stop
         style="stop-color:#5fd391;stop-opacity:1;"
         offset="1"
         id="stop3664-5" />
    </radialGradient>
  </defs>
  <sodipodi:namedview
     id="namedview8262"
     pagecolor="#ffffff"
     bordercolor="#000000"
     borderopacity="0.25"
     inkscape:showpageshadow="2"
     inkscape:pageopacity="0.0"
     inkscape:pagecheckerboard="0"
     inkscape:deskcolor="#d1d1d1"
     showgrid="false"
     inkscape:zoom="6.828125"
     inkscape:cx="19.038902"
     inkscape:cy="5.8581236"
     inkscape:window-width="2560"
     inkscape:window-height="998"
     inkscape:window-x="1680"
     inkscape:window-y="0"
     inkscape:window-maximized="1"
     inkscape:current-layer="svg8260" />
  <path
     d="m 2.5380664,0.29490721 c 0.031749,0 0.062088,-0.004233 0.091015,-0.012347 0.380287,-0.0250467 0.7605739,-0.0236357 1.1398025,0.002822 C 4.1131883,0.31289831 4.4465567,0.38733298 4.769342,0.50974445 5.3052008,0.7302264 5.6717296,1.1133355 5.8703396,1.6576609 5.9818152,1.9857377 6.0491944,2.3233394 6.0700079,2.6690548 6.097524,3.1047268 6.0879992,3.5386349 6.0396696,3.9728958 6.0026287,4.277337 5.9239608,4.5694312 5.8026076,4.8505896 5.5778926,5.3384716 5.2127748,5.6746622 4.7086653,5.8591613 4.3005095,5.9970947 3.8803594,6.0701183 3.4475096,6.0771737 2.9624497,6.1032788 2.4816231,6.065885 2.0050297,5.9681675 1.1298053,5.7737908 0.58830213,5.239343 0.38440059,4.3655297 0.29761897,3.9728958 0.2574031,3.5746175 0.2658696,3.172106 0.25634479,2.7449006 0.30149945,2.3219283 0.40239191,1.9056588 0.61722933,1.0900526 1.1354497,0.58417928 1.9567001,0.38874424 2.1482547,0.34182572 2.3426314,0.31007635 2.5380664,0.29490721 Z"
     style="fill:url(#radialGradient3666-6);fill-rule:evenodd;stroke:none;stroke-width:0.352683;stroke-dasharray:none"
     id="path3668" />
  <path
     id="path40020"
     style="fill:#f9f9f9;fill-opacity:1;fill-rule:evenodd;stroke:none;stroke-width:0.352683;stroke-dasharray:none"
     d="m 3.9068988,3.0323048 a 1.2475263,1.2420008 11.425286 0 0 -1.2386597,1.031441 1.2475263,1.2420008 11.425286 0 0 1.0195559,1.430892 1.2479008,1.2427454 11.556734 0 0 0.7332742,-0.09767 l 0.3198708,0.44958 c 0.1480733,-0.05679 0.2837371,-0.126715 0.4072023,-0.210319 L 4.7884814,5.1308428 C 4.9579373,4.9566588 5.0843501,4.7361958 5.1274721,4.4812828 5.2412374,3.8087408 4.7764918,3.1637868 4.1011984,3.0493568 a 1.2475263,1.2420008 11.425286 0 0 -0.1942996,-0.01705 z m -0.041857,0.450092 c 0.052758,-0.0016 0.106966,0.0022 0.1612273,0.01137 a 0.78779351,0.78453888 11.556651 0 1 0.6480096,0.910004 0.78816758,0.78491141 11.556642 0 1 -0.9115543,0.645943 C 3.3286391,4.9761558 3.04061,4.5721798 3.1136812,4.1402248 3.1777806,3.7613008 3.4957335,3.4939338 3.8650418,3.4823968 Z" />
  <path
     id="path334"
     style="opacity:0.727273;mix-blend-mode:normal;fill:#f8f9f9;fill-opacity:1;stroke-width:0.637963;paint-order:stroke fill markers"
     d="m 4.3259462,0.3673378 -0.027788,1.0469107 c -0.014536,0.5476262 0.4365716,1.0006442 1.0110432,1.0160541 l 0.7469601,0.020037 C 6.0291796,2.2017197 5.978736,1.9570715 5.9045297,1.7166542 5.7205096,1.1643209 5.3641324,0.769176 4.8343452,0.5332388 4.6680787,0.4646976 4.4986863,0.410055 4.3259462,0.3673378 Z" />
</svg>

<svg xmlns="http://www.w3.org/2000/svg" width="24" height="24" viewBox="0 0 6.35 6.35"><defs><radialGradient id="a" cx="0" cy="0" r="1" fx="0" fy="0" gradientTransform="rotate(90 1.455 1.72) scale(5.82072)" gradientUnits="userSpaceOnUse" spreadMethod="pad"><stop offset="0" style="stop-color:#f9f9f9;stop-opacity:1"/><stop offset="1" style="stop-color:#5fd391;stop-opacity:1"/></radialGradient></defs><path d="M2.538.295A.335.335 0 0 0 2.63.283c.38-.025.76-.024 1.14.002a3.62 3.62 0 0 1 1 .225c.536.22.903.603 1.101 1.148.112.328.18.665.2 1.011.028.436.018.87-.03 1.304a3.166 3.166 0 0 1-.237.878c-.225.487-.59.824-1.094 1.008a4.125 4.125 0 0 1-1.261.218 5.644 5.644 0 0 1-1.443-.109C1.13 5.774.588 5.24.385 4.366a5.025 5.025 0 0 1-.12-1.194c-.009-.427.036-.85.137-1.266C.617 1.09 1.135.584 1.957.389c.191-.047.386-.079.581-.094Z" style="fill:url(#a);fill-rule:evenodd;stroke:none;stroke-width:.352683;stroke-dasharray:none"/><path d="M3.907 3.032a1.248 1.242 11.425 0 0-1.239 1.032 1.248 1.242 11.425 0 0 1.02 1.43 1.248 1.243 11.557 0 0 .733-.097l.32.45a2 2 0 0 0 .407-.21l-.36-.506c.17-.174.296-.395.34-.65A1.252 1.252 0 0 0 4.1 3.05a1.248 1.242 11.425 0 0-.194-.017zm-.042.45a.82.82 0 0 1 .161.012.788.785 11.557 0 1 .648.91.788.785 11.557 0 1-.911.646.787.787 0 0 1-.65-.91.786.786 0 0 1 .752-.658Z" style="fill:#f9f9f9;fill-opacity:1;fill-rule:evenodd;stroke:none;stroke-width:.352683;stroke-dasharray:none"/><path d="m4.326.367-.028 1.047c-.014.548.437 1 1.011 1.016l.747.02a3.914 3.914 0 0 0-.151-.733A1.898 1.898 0 0 0 4.835.533a3.594 3.594 0 0 0-.51-.166Z" style="opacity:.727273;mix-blend-mode:normal;fill:#f8f9f9;fill-opacity:1;stroke-width:.637963;paint-order:stroke fill markers"/></svg>
